!!!OTL: Yujia aichang dagange
!!!ARE: Asia, China, Fujian Lianjiang
!! II, 563
!!!SCT: C1989
!!!YEM: Copyright 1995, estate of Helmut Schaffrath.
**kern
*ICvox
*Ivox
*M2/4
*k[f#c#]
*D:
{8.a
16a
8f#
8a
=1
8e
16e
16f#
4a
=2
8.a
16b
8dd
8f#
=3
4a
4a}
=4
{8.a
16a
8f#
8a
=5
8e
16e
16f#
4a
=6
8.a
16b
8f#
8e
=7
4d
4d}
=8
{8a
16b
16dd
4a
=9
8f#
16f#
16a
4e
=10
8.f#
16a
8dd
8b
=11
4a
8a
8r}
=12
{8.e
16f#
4a
=13
8b
16b
16dd
8a
8a
=14
8.ee
16ff#
16ee
16dd
8b
=15
4dd
8dd
8r}
==
!!!AGN: Shange, YÅge. Dange
!!!AMT: simple duple
!!!AIN: vox
!!!EED: Helmut Schaffrath
!!!EEV: 1.0
*-
